X: 37707
T: Soft Mild Morning
R: waltz
M: 3/4
K: Dmajor
A/B/c/|"Bm"d2 ed cB|"F#m" c2 dc BA|"G"B2 A/B/c c/B/A|"D" F4 E2|
"F#m"F2 A2 AB|"A" cB ce e/f/a|"F#m" c2 "E"B4|"A"A4 A/B/c|
"Bm" d>f ed cB|"F#m" c>e dc BA|"G"B2 A/B/c c/B/A|"D" F4 E2|
"F#m"F2 A2 Bc|d3f ed|"F#m"c2 "E"B4|"A"A4||
z2 "A"A2 AB cd|"A" e4 a2|"D"f2 e2 a2|"F#m" fe dc BA|
"D"A2 AB cd|"A"e4 a2|"F#m" fe dc BA|"E" B3 dcB|
"D"A2 AB cd|"A"e4 a2|"F#m" fe dc BA|"D" F2"A" E2 E2|
"F#m"F2 A2 Bc|"Bm" d3f ed|"F#m"c2"E" B4|"A"A4 A2||

